!!!COM: Bach, Johann Sebastian
!!!CDT: 1685/02/21/-1750/07/28/
!!!OTL@@DE: O Gott, du frommer Gott
!!!SCT: BWV 45/7
!!!PC#: 85
!!!AGN: chorale
**harm	**kern	**kern	**kern	**kern
*	*ICvox	*ICvox	*ICvox	*ICvox
*	*Ibass	*Itenor	*Ialto	*Isoprn
*	*I"Bass	*I"Tenor	*I"Alto	*I"Soprano
*	*	*oclefC4	*oclefC3	*oclefC1
*	*clefF4	*clefGv2	*clefG2	*clefG2
*k[f#c#g#d#]	*k[f#c#g#d#]	*k[f#c#g#d#]	*k[f#c#g#d#]	*k[f#c#g#d#]
*E:	*E:	*E:	*E:	*E:
*M4/4	*M4/4	*M4/4	*M4/4	*M4/4
*met(c)	*met(c)	*met(c)	*met(c)	*met(c)
*MM100	*MM100	*MM100	*MM100	*MM100
I	4EE	4G#	4e	4b
=1	=1	=1	=1	=1
I	4E	4B	4e	4g#
viio6	4F#	4A	4d#	4f#
I6	4G#	4B	4e	4b
I	4E	4e	4g#	4b
=2	=2	=2	=2	=2
IV;	2A;	2e;	2a;	2cc#;
.	4r	4ry	4ry	4r
V/V	4A#	4c#	4f#	4cc#
=3	=3	=3	=3	=3
V	4B	4B	4d#	4f#
V2	4AnX	4B	4d#	4f#
I6	4G#	4B	4e	4b
V65	4D#	4B	4f#	4a
=4	=4	=4	=4	=4
I	4E	4B	4e	4g#
V7	4BB	4A	4d#	4f#
I;	4EE;	4G#;	4B;	4e;
I6	4G#	4B	4e	4b
=5	=5	=5	=5	=5
IV	4A	4A	4e	4cc#
ii7	4F#	4e	4a	4cc#
V7	4B	4d#	4a	4b
V7	4BB	4d#	4f#	4a
=6	=6	=6	=6	=6
I;	2E;	2B;	2e;	2g#;
.	4r	4ry	4ry	4r
V6	4D#	4B	4f#	4f#
=7	=7	=7	=7	=7
I	4E	4B	4e	4g#
B:viio6	4C#	4c#	4e	4a#
I6	4D#	4F#	4f#	4b
ii65	4E	4B	4g#	4cc#
=8	=8	=8	=8	=8
V(64)	4F#	4B	4f#	4dd#
V	4FF#	4A#	4f#	4cc#
I;	4BB;	4F#;	4d#;	4b;
E:V65	4D#	4A	4f#	4b
=9	=9	=9	=9	=9
I	2E	2G#	2e	2b
I6	4G#	4B	4e	4ee
V7/IV	4E	4e	4g#	4dd
=10	=10	=10	=10	=10
IV;	2A;	2e;	2a;	2cc#;
.	4r	4ry	4ry	4r
IV	4A	4e	4a	4cc#
=11	=11	=11	=11	=11
ii	4F#	4f#	4a	4cc#
B:viio64	4E	4c#	4a#	4cc#
I6	4D#	4d#	4b	4ff#
ii7	8C#L	8eL	8bL	8eeL
viio6	8C#J	8eJ	8a#J	8eeJ
=12	=12	=12	=12	=12
I;	2BB;	2f#;	2b;	2dd#;
.	4ry	4r	4ry	4r
E:I6	4G#	4e	4b	4b
=13	=13	=13	=13	=13
IV	4A	4e	4a	4cc#
I6	4G#	4e	4b	4b
ii	4F#	4A	4a	4cc#
V7	4BB	4A	4f#	4dd#
=14	=14	=14	=14	=14
vi;	2C#;	2G#;	2e;	2ee;
.	4ry	4r	4ry	4r
V65	4D#	4A	4f#	4b
=15	=15	=15	=15	=15
I	4E	4G#	4e	4b
IV6	8C#L	8AL	8eL	8aL
I64	8BBJ	8BJ	8eJ	8g#J
ii65	4AA	4c#	4e	4f#
V7	4BB	4A	4d#	4f#
=16	=16	=16	=16	=16
I;	2.EE;	2.G#;	2.B;	2.e;
==	==	==	==	==
*-	*-	*-	*-	*-
!!!YOR1: 371 vierstimmige Choralges&auml;nge von Johann Sebastian Bach, 
!!!YOR2: 4th ed. by Alfred D&ouml;rffel (Leipzig: Breitkopf und H&auml;rtel, 
!!!YOR2: c.1875). 178 pp. Plate "V.A.10".  reprint: J.S. Bach, 371 Four-Part 
!!!YOR4: Chorales (New York: Associated Music Publishers, Inc., c.1940).
!!!SMS: B&H, 4th ed, Alfred D&ouml;rffel, c.1875, plate V.A.10
!!!EED:  Craig Stuart Sapp
!!!EEV:  2009/05/22
